src/components/Icon/assets/laptop.svg

<svg xmlns="http://www.w3.org/2000/svg" width="24" height="24" viewBox="0 0 24 24">
    <path fill="#65676A" fill-rule="evenodd" d="M4 17h16V7H4v10zm18 0V6.5c0-.827-.673-1.5-1.5-1.5h-17C2.673 5 2 5.673 2 6.5V17H0v2h24v-2h-2z"/>
</svg>

<svg width="24" height="24" viewBox="0 0 24 24" fill="none" xmlns="http://www.w3.org/2000/svg">
<path fill-rule="evenodd" clip-rule="evenodd" d="M4 17H20V7H4V17ZM22 17V6.5C22 5.673 21.327 5 20.5 5H3.5C2.673 5 2 5.673 2 6.5V17H0V19H2H22H24V17H22Z" fill="#65676A"/>
</svg>
